packages/core/src/svgs/tokens/branded/IMPT.svg

<svg width="24" height="24" viewBox="0 0 24 24" fill="none" xmlns="http://www.w3.org/2000/svg">
<path d="M13.5263 4.10025L2.73826 11.1782C2.5593 11.2944 2.40505 11.4448 2.28434 11.6206C2.16364 11.7966 2.07885 11.9947 2.03484 12.2034C1.99085 12.4121 1.98849 12.6275 2.02792 12.8372C2.06736 13.047 2.1478 13.2468 2.26463 13.4253L6.16935 19.4086C6.40471 19.7663 6.77202 20.0163 7.19105 20.104C7.61008 20.1917 8.04681 20.1101 8.40588 19.877L19.1939 12.7991C19.3724 12.6824 19.5261 12.5317 19.6464 12.3557C19.7666 12.1796 19.8508 11.9814 19.8943 11.7727C19.9379 11.5639 19.9397 11.3487 19.8999 11.1392C19.86 10.9297 19.7793 10.7302 19.6622 10.552L15.7575 4.57388C15.5221 4.21625 15.1548 3.96629 14.7357 3.87853C14.3168 3.79079 13.88 3.87238 13.521 4.10552L13.5263 4.10025Z" fill="#89EFDB"/>
<path d="M17.9256 6.9314L5.40111 10.0047C5.19467 10.0552 5.00024 10.146 4.82894 10.2718C4.65765 10.3976 4.51286 10.5559 4.40286 10.7378C4.29288 10.9196 4.21985 11.1213 4.18796 11.3316C4.15608 11.5416 4.16597 11.756 4.21706 11.9623L5.91156 18.9087C6.01372 19.3258 6.27725 19.6853 6.64431 19.9083C7.01135 20.1313 7.4519 20.1996 7.86919 20.098L20.3884 17.0247C20.5955 16.9742 20.7905 16.8833 20.9621 16.7571C21.1339 16.6309 21.2789 16.4722 21.3889 16.2897C21.4989 16.1072 21.5719 15.9049 21.6034 15.694C21.6349 15.4833 21.6244 15.2684 21.5725 15.0618L19.878 8.11544C19.7746 7.70155 19.5122 7.34513 19.1476 7.12347C18.7832 6.90181 18.3459 6.8328 17.9309 6.9314H17.9256Z" fill="#A57FE2"/>
<path d="M17.3892 7.07355L5.41194 10.0152C5.20448 10.0652 5.00894 10.1557 4.83666 10.2816C4.66437 10.4075 4.51873 10.5663 4.40816 10.7488C4.29757 10.9313 4.22424 11.1339 4.1924 11.3449C4.16057 11.556 4.17083 11.7711 4.22264 11.9781L5.91714 18.9193L5.99081 19.1456L6.16973 19.4192C6.35081 19.6929 6.61095 19.9049 6.91553 20.0272C7.22012 20.1494 7.5547 20.1759 7.87475 20.1034L8.0221 20.0717C8.15892 20.0297 8.28522 19.9664 8.41153 19.8875L19.1995 12.8096C19.5586 12.5741 19.8095 12.2059 19.8973 11.7856C19.9851 11.3653 19.9026 10.9273 19.6678 10.5678L17.3892 7.07355Z" fill="#886EE2"/>
<path d="M20.4044 9.62579H7.71146C6.84315 9.62579 6.21167 10.4678 6.21167 11.2993V18.5193C6.21167 19.3929 6.8379 20.1559 7.71146 20.1559H20.4044C20.6148 20.1563 20.8229 20.114 21.0165 20.0317C21.21 19.9494 21.3849 19.8288 21.5305 19.677C21.8331 19.3678 22.0014 18.9518 21.999 18.5193V11.3097C21.9975 10.878 21.8298 10.4634 21.5305 10.152C21.3842 9.99965 21.2088 9.878 21.0148 9.7942C20.8255 9.70999 20.6149 9.63106 20.4044 9.63106V9.62579Z" fill="#9EED57"/>
<path d="M21.9463 15.0198L20.6517 9.62579H7.75882C6.87473 9.62579 6.21167 10.452 6.21167 11.2993V18.5193C6.21167 19.5612 7.12206 20.3506 8.13245 20.1033L20.757 16.9985C20.9656 16.9473 21.162 16.8555 21.3349 16.7283C21.5079 16.6011 21.6542 16.441 21.7652 16.2572C21.8762 16.0734 21.9497 15.8694 21.9817 15.6571C22.0137 15.4447 22.0035 15.2282 21.9516 15.0198H21.9463Z" fill="#77E03B"/>
<path d="M17.7891 14.3619V13.8358H17.2628V13.3095H16.7366V13.8358H16.384V14.3619H16.7366V15.2409C16.7366 15.7882 17.0155 16.0039 17.7891 15.9249V15.4145C17.4734 15.4302 17.2628 15.4619 17.2628 15.2409V14.3619H17.7891ZM15.2736 13.8358C14.9632 13.8358 14.7843 13.9516 14.6316 14.1462V13.8358H14.1054V16.4144C14.1054 16.5564 13.9053 16.667 13.7633 16.6354C13.7122 16.6247 13.6662 16.5971 13.6328 16.5569C13.5992 16.5168 13.5804 16.4666 13.5791 16.4144V14.704C13.5791 14.1778 13.2687 13.8358 12.7845 13.8358C12.4951 13.8358 12.2794 13.9516 12.1477 14.1409C12.0267 13.9463 11.832 13.8358 11.5689 13.8358C11.3058 13.8358 11.0689 13.941 10.948 14.1199V13.8358H10.4217V15.9408H10.948V14.8198C10.948 14.5041 11.1374 14.3462 11.3742 14.3462C11.611 14.3462 11.732 14.4936 11.732 14.7462V15.9408H12.2845V14.8198C12.2845 14.5041 12.4371 14.3462 12.6793 14.3462C12.9107 14.3462 13.0529 14.4936 13.0529 14.7462V16.4038C13.0529 16.7932 13.3581 17.1511 13.7528 17.1774C14.1896 17.2142 14.6316 16.8617 14.6316 16.4197V15.7566C14.6316 15.7566 14.7158 15.9408 15.1578 15.9408C15.7315 15.9408 16.2104 15.5776 16.2104 14.9513C16.2104 14.32 15.842 13.8358 15.2736 13.8358ZM15.1684 15.4145C14.8368 15.4145 14.6316 15.2409 14.6316 14.8882C14.6316 14.5357 14.8368 14.3568 15.1736 14.3568C15.5105 14.3568 15.6841 14.5357 15.6841 14.8882C15.6841 15.2409 15.5157 15.4145 15.1736 15.4145H15.1684ZM9.89543 13.8358H9.36919V15.9408H9.89543V13.8358ZM9.5639 12.7885C9.50904 12.8003 9.45804 12.8257 9.4157 12.8626C9.37337 12.8994 9.34106 12.9463 9.32182 12.999C9.2271 13.2411 9.41128 13.4831 9.63757 13.4831C9.82176 13.4831 9.97436 13.3254 9.97436 13.1359C9.97436 12.9253 9.78492 12.7411 9.5639 12.7885Z" fill="white"/>
</svg>

<svg xmlns="http://www.w3.org/2000/svg" width="24" height="24" fill="none" viewBox="0 0 24 24">
    <path fill="#89EFDB" d="M13.526 4.1 2.738 11.178a1.623 1.623 0 0 0-.473 2.247l3.904 5.984a1.62 1.62 0 0 0 2.237.468l10.788-7.078a1.63 1.63 0 0 0 .706-1.66c-.04-.21-.12-.409-.238-.587l-3.904-5.978a1.62 1.62 0 0 0-2.237-.468z"/>
    <path fill="#A57FE2" d="M17.926 6.931 5.4 10.005a1.615 1.615 0 0 0-1.184 1.957l1.695 6.947a1.62 1.62 0 0 0 1.957 1.189l12.52-3.073a1.613 1.613 0 0 0 1.184-1.963l-1.695-6.947a1.62 1.62 0 0 0-1.947-1.184z"/>
    <path fill="#886EE2" d="M17.39 7.074 5.411 10.015a1.617 1.617 0 0 0-1.19 1.963l1.695 6.941.074.227.179.273a1.62 1.62 0 0 0 1.705.684l.147-.031a1.7 1.7 0 0 0 .39-.184L19.2 12.81a1.62 1.62 0 0 0 .468-2.242z"/>
    <path fill="#9EED57" d="M20.404 9.626H7.711c-.868 0-1.5.842-1.5 1.673v7.22c0 .874.627 1.637 1.5 1.637h12.693a1.56 1.56 0 0 0 1.127-.479c.302-.31.47-.725.468-1.158v-7.21a1.68 1.68 0 0 0-.468-1.157 1.6 1.6 0 0 0-.516-.358c-.19-.084-.4-.163-.61-.163z"/>
    <path fill="#77E03B" d="m21.946 15.02-1.294-5.394H7.759c-.884 0-1.547.826-1.547 1.673v7.22c0 1.042.91 1.832 1.92 1.584l12.625-3.105a1.63 1.63 0 0 0 1.195-1.978z"/>
    <path fill="#fff" d="M17.79 14.362v-.526h-.527v-.527h-.526v.527h-.353v.526h.353v.879c0 .547.279.763 1.052.684v-.51c-.316.015-.526.047-.526-.174v-.88zm-2.516-.526a.74.74 0 0 0-.642.31v-.31h-.527v2.578c0 .142-.2.253-.342.221a.23.23 0 0 1-.184-.22v-1.711c0-.526-.31-.868-.795-.868-.289 0-.505.116-.636.305-.121-.195-.316-.305-.58-.305-.262 0-.5.105-.62.284v-.284h-.526v2.105h.526V14.82c0-.316.19-.474.426-.474.237 0 .358.148.358.4v1.195h.553V14.82c0-.316.152-.474.394-.474.232 0 .374.148.374.4v1.658c0 .39.305.747.7.773.437.037.879-.315.879-.757v-.663s.084.184.526.184c.574 0 1.052-.363 1.052-.99 0-.631-.368-1.115-.936-1.115m-.106 1.579c-.331 0-.536-.174-.536-.527 0-.352.205-.531.542-.531s.51.179.51.531q.002.528-.51.527zm-5.273-1.58H9.37v2.106h.526zm-.331-1.046a.33.33 0 0 0-.242.21.353.353 0 0 0 .316.484.345.345 0 0 0 .336-.347c0-.21-.19-.395-.41-.347"/>
</svg>
